hero/outline/arrow-down-circle.svg

<svg width="24" height="24" viewBox="0 0 24 24" fill="none" xmlns="http://www.w3.org/2000/svg">
<path d="M9 12.75L12 15.75M12 15.75L15 12.75M12 15.75L12 8.25M21 12C21 16.9706 16.9706 21 12 21C7.02944 21 3 16.9706 3 12C3 7.02944 7.02944 3 12 3C16.9706 3 21 7.02944 21 12Z" stroke="#0F172A" stroke-width="1.5" stroke-linecap="round" stroke-linejoin="round"/>
</svg>

<svg viewBox="0 0 24 24" xmlns="http://www.w3.org/2000/svg"><path fill="none" stroke="#000" stroke-linecap="round" stroke-linejoin="round" stroke-width="1.5" d="M9 12.75l3 3m0 0l3-3m-3 3v-7.5M21 12v0c0 4.97-4.03 9-9 9 -4.98 0-9-4.03-9-9v0c0-4.98 4.02-9 9-9 4.97 0 9 4.02 9 9Z"/></svg>
